src/assets/CrossCircle.svg

<svg width="120" height="120" viewBox="0 0 120 120" fill="none" xmlns="http://www.w3.org/2000/svg">
<g clip-path="url(#clip0_880_7432)">
<path fill-rule="evenodd" clip-rule="evenodd" d="M60 108C86.5097 108 108 86.5097 108 60C108 33.4903 86.5097 12 60 12C33.4903 12 12 33.4903 12 60C12 86.5097 33.4903 108 60 108ZM60 120C93.1371 120 120 93.1371 120 60C120 26.8629 93.1371 0 60 0C26.8629 0 0 26.8629 0 60C0 93.1371 26.8629 120 60 120ZM84.2426 35.7574C86.5858 38.1005 86.5858 41.8995 84.2426 44.2426L68.4853 60L84.2426 75.7574C86.5858 78.1005 86.5858 81.8995 84.2426 84.2426C81.8995 86.5858 78.1005 86.5858 75.7574 84.2426L60 68.4853L44.2426 84.2426C41.8995 86.5858 38.1005 86.5858 35.7574 84.2426C33.4142 81.8995 33.4142 78.1005 35.7574 75.7574L51.5147 60L35.7574 44.2426C33.4142 41.8995 33.4142 38.1005 35.7574 35.7574C38.1005 33.4142 41.8995 33.4142 44.2426 35.7574L60 51.5147L75.7574 35.7574C78.1005 33.4142 81.8995 33.4142 84.2426 35.7574Z" fill="black"/>
</g>
<defs>
<clipPath id="clip0_880_7432">
<rect width="120" height="120" fill="white"/>
</clipPath>
</defs>
</svg>

<svg xmlns="http://www.w3.org/2000/svg" width="120" height="120" fill="none"><g clip-path="url(#a)"><path fill="#000" fill-rule="evenodd" d="M60 108c26.51 0 48-21.49 48-48S86.51 12 60 12 12 33.49 12 60s21.49 48 48 48m0 12c33.137 0 60-26.863 60-60S93.137 0 60 0 0 26.863 0 60s26.863 60 60 60m24.243-84.243a6 6 0 0 1 0 8.486L68.485 60l15.758 15.757a6 6 0 1 1-8.486 8.486L60 68.485 44.243 84.243a6 6 0 1 1-8.486-8.486L51.515 60 35.757 44.243a6 6 0 1 1 8.486-8.486L60 51.515l15.757-15.758a6 6 0 0 1 8.486 0" clip-rule="evenodd"/></g><defs><clipPath id="a"><path fill="#fff" d="M0 0h120v120H0z"/></clipPath></defs></svg>
